svgs/thin/diagram-sankey.svg

<svg xmlns="http://www.w3.org/2000/svg" viewBox="0 0 576 512"><!--! Font Awesome Pro 6.4.2 by @fontawesome - https://fontawesome.com License - https://fontawesome.com/license (Commercial License) Copyright 2023 Fonticons, Inc. --><path d="M355 48c-8.8 0-16.9 4.8-21.1 12.5L256.1 203.2C249.1 216 235.6 224 221 224H8c-4.4 0-8-3.6-8-8s3.6-8 8-8H221c8.8 0 16.9-4.8 21.1-12.5L319.9 52.8C326.9 40 340.4 32 355 32H568c4.4 0 8 3.6 8 8s-3.6 8-8 8H355zM174.6 304l94.7 148.9c4.4 6.9 12 11.1 20.2 11.1H568c4.4 0 8 3.6 8 8s-3.6 8-8 8H289.6c-13.7 0-26.4-7-33.7-18.5L155.6 304H8c-4.4 0-8-3.6-8-8s3.6-8 8-8H568c4.4 0 8 3.6 8 8s-3.6 8-8 8H174.6z"/></svg>

<svg xmlns="http://www.w3.org/2000/svg" viewBox="0 0 576 512"><!--! Font Awesome Pro 6.1.1 by @fontawesome - https://fontawesome.com License - https://fontawesome.com/license (Commercial License) Copyright 2022 Fonticons, Inc. --><path d="M354.1 48C346.2 48 338.1 52.8 333.9 60.51L256.1 203.2C249.1 216 235.6 223.1 221 223.1H8C3.582 223.1 0 220.4 0 215.1C0 211.6 3.582 207.1 8 207.1H221C229.8 207.1 237.9 203.2 242.1 195.5L319.9 52.85C326.9 39.1 340.4 32 354.1 32H568C572.4 32 576 35.58 576 40C576 44.42 572.4 48 568 48H354.1zM174.6 304L269.3 452.9C273.7 459.8 281.4 464 289.6 464H568C572.4 464 576 467.6 576 472C576 476.4 572.4 480 568 480H289.6C275.9 480 263.2 473 255.8 461.5L155.6 304H8C3.582 304 0 300.4 0 296C0 291.6 3.582 288 8 288H568C572.4 288 576 291.6 576 296C576 300.4 572.4 304 568 304H174.6z"/></svg>
